X:1
T:Wenn die Sonne sinkt
T:Eduard Grell
T:Hermann
T:Wenn die Sonne sinkt
T:CPDL   —   Creative Commons Attribution Non Commercial 3.0
T:CPDL   —   Creative Commons Attribution Non Commercial 3.0
C:Eduard Grell
Z:Hermann
Z:CPDL   —   Creative Commons Attribution Non Commercial 3.0
%%score [ ( 1 2 ) ( 3 4 ) ]
L:1/8
Q:1/4=90
M:3/4
K:Ab
V:1 treble nm="Sopran\nAlt"
V:2 treble 
V:3 bass nm="Tenor\nBass"
V:4 bass 
V:1
 E>E | (E2 c2) B2 | A4 E>E | E4 E2 | E4 E>E | (E2 c2) B2 | A4 E>E | E4 E2 | E6 | z6 | z6 | %11
w: 1.  Wenn die|Son- * ne|sinkt und der|Mond er-|blinkt, wenn der|Ster- * ne|Pracht durch das|Dun- kel|lacht;|||
w: 2.  Wenn in|stil- * ler|Flur müd' der|Schwan sich|ruht, und der|Glo- * cke|Klang stimmt den|Nacht- ge-|sang,|||
w: 3.  Wenn der|Stern _ ent-|weicht und der|Mond er-|bleicht, wenn das|Dun- * kel|flieht und der|Mor- gen|glüht,|||
 e3 c AB | c6 | d3 c ed | B6 | cd e3 A | (A2 f3 e) | eddc cB | (!turn!A2 c3) B | !fermata!A4 |] %20
w: und in Wald und|Flur|schlum- mert die Na-|tur,|und in Wald und|Flur _ _|schlum- * * * mert _|die _ _||
w: Nacht glänzt auf zum|Tag,|dass es för- dern|mag,|Nacht glänzt auf zum|Tag, _ _|dass _ _ _ es _||mag.|
w: wech- selt Zeit und|Ort,|stürmt das Le- ben|fort,|wech- selt Zeit und|Ort, _ _|stürmt _ _ _ das _|Le- * *||
V:2
 C>C | (C2 E2) D2 | C4 C>C | (C2 E2) D2 | C4 C>C | (C2 E2) D2 | C4 C>C | (E2 D2) C2 | B,6 | %9
w: |||||||||
w: |||||||||
w: |||||||||
 =D>D DE F2 | B,>B, B,C D2 | C>C CC C2 | C>C CC C2 | E>E EE E2 | G>G GG G2 | EF _G3 E | F6 | %17
w: lei- ser wird der Ton|in den Ber- gen schon,|und in Wald und Flur|schlum- mert die Na- tur,|und in Wald und Flur|schlum- mert die Na- tur,|||
w: mu- tig schafft der Sinn|neu- es Le- ben hin,|Nacht glänzt auf zum Tag,|dass es för- dern mag,|Nacht glänzt auf zum Tag,|dass es för- dern mag,|||
w: nim- mer Ruh und Rast,|fort in eil'- ger Hast,|wech- selt Zeit und Ort,|stürmt das Le- ben fort,|wech- selt Zeit und Ort,|stürmt das Le- ben fort,|||
 (F2 =E2) F2 | E4 D2 | C4 |] %20
w: |* Na-|tur.|
w: |för- dern||
w: |* ben|fort.|
V:3
 E,>E, | E,4 E,2 | E,4 E,>E, | (E,2 C2) B,2 | A,4 E,>E, | E,4 E,2 | E,4 E,>E, | (C2 B,2) A,2 | %8
 G,6 | F,>F, F,G, A,2 | G,>G, G,A, B,2 | A,>E, E,E, E,2 | E,>E, E,E, E,2 | G,>G, G,G, G,2 | %14
 B,>B, B,B, E2 | A,A, A,2 C2 | (D2 A,2 =A,2) | (B,2 G,2) D2 | (C2 E2) G,2 | !fermata!A,4 |] %20
V:4
 A,,>A,, | A,,4 A,,2 | A,,4 A,,>A,, | A,,4 A,,2 | A,,4 A,,>A,, | A,,4 A,,2 | A,,4 A,,>A,, | %7
 A,,4 A,,2 | E,6 | B,,>B,, B,,B,, B,,2 | E,>E, E,E, E,2 | A,,>A,, A,,A,, A,,2 | %12
 A,,>A,, A,,A,, A,,2 | B,,>B,, B,,B,, B,,2 | E,>E, E,E, E,2 | A,A,, A,,2 A,,2 | (D,4 C,2) | %17
 (B,,2 C,2) D,2 | E,4 E,2 | A,,4 |] %20

